X:93
T:Auld Lang Syne
S:John Moore's Book 2
Z:Transcribed by Steve Mansfield 05/2021
%%VWML: Moore2-4494-p72-0
F:http://www.vwml.org/record/Moore2/4494/p72
M:2/4
L:1/8
K:G
D | G>GGB | AGAB | G<G Bd | e3 (f/g/) | 
d>B B>G | A>GAB | G>E E>D | G3 :|
|: e | (d<B) (B>G) | A>GA e | (d>B) (B>d) | He3 f/g/ | 
(d<B) (B>G) | A>GA B/A/ | G<E E>D | G3 :|

